packages/icons/svg/Media_BookStore_48px.svg

<svg xmlns="http://www.w3.org/2000/svg" viewBox="0 0 48 48"><path d="M42 4H15a2 2 0 00-2 2v18H6a2 2 0 00-2 2v12a6 6 0 006 6h28a6 6 0 006-6V6a2 2 0 00-2-2zM7 38V27h6v11a3 3 0 01-6 0zm34 0a3 3 0 01-3 3H15.19a6 6 0 00.81-3V7h25z"/><path d="M20.14 20h16.72a1 1 0 001-1v-8a1 1 0 00-1-1H20.14a1 1 0 00-1 1v8a1 1 0 001 1zm1-8h14.72v6H21.14zM20 26h17a1 1 0 000-2H20a1 1 0 000 2zM20 31h17a1 1 0 000-2H20a1 1 0 000 2zM20 36h9a1 1 0 000-2h-9a1 1 0 000 2z"/></svg>

<svg xmlns="http://www.w3.org/2000/svg" viewBox="0 0 48 48"><defs></defs><g id="Icon"><path  d="M42,4H15a2,2,0,0,0-2,2V24H6a2,2,0,0,0-2,2V38a6,6,0,0,0,6,6l.33,0,.17,0H38a6,6,0,0,0,6-6V6A2,2,0,0,0,42,4ZM7,38V27h6V38a3,3,0,0,1-6,0Zm34,0a3,3,0,0,1-3,3H15.19A6,6,0,0,0,16,38V7H41Z"/><path  d="M20.14,20H36.86a1,1,0,0,0,1-1V11a1,1,0,0,0-1-1H20.14a1,1,0,0,0-1,1v8A1,1,0,0,0,20.14,20Zm1-8H35.86v6H21.14Z"/><path  d="M20,26H37a1,1,0,0,0,0-2H20a1,1,0,0,0,0,2Z"/><path  d="M20,31H37a1,1,0,0,0,0-2H20a1,1,0,0,0,0,2Z"/><path  d="M20,36h9a1,1,0,0,0,0-2H20a1,1,0,0,0,0,2Z"/></g></svg>
